monitor-star.svg

<svg fill="currentColor" viewBox="0 0 24 24"><path d="M21 16V4H3v12zm0-14a2 2 0 0 1 2 2v12a2 2 0 0 1-2 2h-7v2h2v2H8v-2h2v-2H3a2 2 0 0 1-2-2V4c0-1.11.89-2 2-2zm-8.03 7H16l-2.47 1.76.94 2.91-2.47-1.8-2.47 1.8.94-2.91L8 9h3.03L12 6z"/></svg>

<svg  viewBox="0 0 24 24" fill="currentColor"><path  d="M21,16V4H3V16H21M21,2A2,2 0 0,1 23,4V16A2,2 0 0,1 21,18H14V20H16V22H8V20H10V18H3C1.89,18 1,17.1 1,16V4C1,2.89 1.89,2 3,2H21M12.97,9H16L13.53,10.76L14.47,13.67L12,11.87L9.53,13.67L10.47,10.76L8,9H11.03L12,6L12.97,9Z"/></svg>
